X:1
T:Polska efter JP Mosesson
R:Polska
O:Småland
M:3/4
L:1/16
K:Am
e4 cBce dcdf|e2e2 ag^fg a4|gagf efed c2cA|cBAG A2E2C2A,2|
e4 cBce dcdf|e2e2 ag^fg a4|gagf efed c2cA|cBAG G2A2 A4:|
|:cded c2dc B2G2|BcdB cBAB E4|cded c2dc B2G2|BcdB cBAB E4|
e4 cBce dcdf|e2e2 ag^fg a4|gagf efed c2cA|cBAG G2A2 A4:|

